;FLAVOR:Marlin
;TIME:1546
;Filament used: 1.06531m
;Layer height: 0.15
;MINX:111.4
;MINY:81.4
;MINZ:0.2
;MAXX:138.6
;MAXY:128.6
;MAXZ:6.5
;Generated with Cura_SteamEngine 4.13.0
M82 ;absolute extrusion mode
G21 ; set units to millimeters
G90 ; use absolute positioning
M82 ; absolute extrusion mode
M104 S200 ; set extruder temp
M140 S60 ; set bed temp
M190 S60 ; wait for bed temp
M109 S200 ; wait for extruder temp
G28 W ; home all without mesh bed level
G80 ; mesh bed leveling
G92 E0.0 ; reset extruder distance position
G1 Y-3.0 F1000.0 ; go outside print area
G1 X60.0 E9.0 F1000.0 ; intro line
G1 X100.0 E21.5 F1000.0 ; intro line
G92 E0.0 ; reset extruder distance position
G92 E0
G92 E0
G1 F2100 E-0.8
;LAYER_COUNT:43
;LAYER:0
M107
G0 F3600 X112.058 Y82.947 Z0.2
;TYPE:SKIRT
G1 F2100 E0
G1 F1800 X112.397 Y82.531 E0.01785
G1 X112.794 Y82.171 E0.03567
G1 X113.241 Y81.873 E0.05354
G1 X113.726 Y81.645 E0.07137
G1 X114.24 Y81.492 E0.0892
G1 X114.908 Y81.41 E0.11159
G1 X115.33 Y81.4 E0.12563
G1 X134.345 Y81.4 E0.75807
G1 X135.043 Y81.41 E0.78129
G1 X135.577 Y81.458 E0.79912
G1 X136.098 Y81.584 E0.81695
G1 X136.595 Y81.787 E0.8348
G1 X137.056 Y82.061 E0.85264
G1 X137.471 Y82.4 E0.87046
G1 X137.831 Y82.798 E0.88831
G1 X138.128 Y83.244 E0.90613
G1 X138.356 Y83.73 E0.92399
G1 X138.508 Y84.244 E0.94182
G1 X138.59 Y84.909 E0.9641
G1 X138.6 Y85.33 E0.97811
G1 X138.6 Y124.309 E2.27456
G1 X138.591 Y125.036 E2.29874
G1 X138.544 Y125.57 E2.31657
G1 X138.419 Y126.091 E2.33439
G1 X138.217 Y126.588 E2.35223
G1 X137.944 Y127.05 E2.37008
G1 X137.606 Y127.466 E2.38791
G1 X137.209 Y127.827 E2.40575
G1 X136.763 Y128.125 E2.42359
G1 X136.278 Y128.353 E2.44142
G1 X135.764 Y128.507 E2.45927
G1 X135.092 Y128.59 E2.48179
G1 X134.67 Y128.6 E2.49583
G1 X115.661 Y128.6 E3.12807
G1 X114.963 Y128.591 E3.15129
G1 X114.428 Y128.544 E3.16915
G1 X113.907 Y128.418 E3.18698
G1 X113.41 Y128.216 E3.20482
G1 X112.949 Y127.943 E3.22264
G1 X112.533 Y127.604 E3.24049
G1 X112.172 Y127.208 E3.25831
G1 X111.874 Y126.762 E3.27615
G1 X111.646 Y126.276 E3.29401
G1 X111.493 Y125.762 E3.31184
G1 X111.41 Y125.088 E3.33443
G1 X111.4 Y124.658 E3.34874
G1 X111.4 Y85.625 E4.64698
G1 X111.409 Y84.96 E4.6691
G1 X111.457 Y84.426 E4.68693
G1 X111.583 Y83.905 E4.70476
G1 X111.785 Y83.408 E4.7226
G1 X112.058 Y82.947 E4.74042
G0 F3600 X112.454 Y83.082
G1 F1800 X112.789 Y82.704 E4.75722
G1 X113.18 Y82.383 E4.77405
G1 X113.617 Y82.128 E4.79088
G1 X114.088 Y81.944 E4.80769
G1 X114.582 Y81.838 E4.8245
G1 X115.24 Y81.801 E4.84642
G1 X134.339 Y81.8 E5.48165
G1 X135.037 Y81.81 E5.50487
G1 X135.54 Y81.857 E5.52167
G1 X136.03 Y81.983 E5.5385
G1 X136.494 Y82.185 E5.55533
G1 X136.92 Y82.457 E5.57214
G1 X137.298 Y82.792 E5.58894
G1 X137.618 Y83.183 E5.60575
G1 X137.873 Y83.62 E5.62258
G1 X138.056 Y84.091 E5.63938
G1 X138.163 Y84.585 E5.65619
G1 X138.199 Y85.24 E5.67801
G1 X138.2 Y124.304 E6.97729
G1 X138.191 Y125.031 E7.00147
G1 X138.145 Y125.534 E7.01827
G1 X138.02 Y126.024 E7.03509
G1 X137.819 Y126.488 E7.05191
G1 X137.548 Y126.915 E7.06873
G1 X137.213 Y127.294 E7.08555
G1 X136.823 Y127.615 E7.10235
G1 X136.387 Y127.871 E7.11917
G1 X135.916 Y128.054 E7.13597
G1 X135.422 Y128.162 E7.15279
G1 X134.76 Y128.199 E7.17485
G1 X115.666 Y128.2 E7.80991
G1 X114.968 Y128.191 E7.83313
G1 X114.464 Y128.144 E7.84997
G1 X113.974 Y128.019 E7.86679
G1 X113.51 Y127.818 E7.88361
G1 X113.084 Y127.547 E7.9004
G1 X112.705 Y127.212 E7.91722
G1 X112.384 Y126.821 E7.93405
G1 X112.129 Y126.385 E7.95085
G1 X111.945 Y125.914 E7.96767
G1 X111.838 Y125.42 E7.98448
G1 X111.801 Y124.744 E8.007
G1 X111.8 Y85.631 E9.3079
G1 X111.809 Y84.966 E9.33002
G1 X111.856 Y84.462 E9.34685
G1 X111.982 Y83.973 E9.36365
G1 X112.183 Y83.509 E9.38047
G1 X112.454 Y83.082 E9.39729
G1 F2100 E8.59729
;MESH:plaquebis.STL
G0 F3600 X114.335 Y85.614
G0 X115.614 Y85.614
G0 X122.595 Y94.818
G0 X123.567 Y95.527
G0 X124.605 Y95.938
G1 F2100 E9.39729
G0 F3600 X124.619 Y95.839
;TYPE:WALL-INNER
G1 F1800 X125.382 Y95.86 E9.42268
G1 X126.131 Y95.706 E9.44811
G1 X126.826 Y95.388 E9.47353
G1 X127.431 Y94.921 E9.49895
G1 X127.913 Y94.327 E9.52439
G1 X128.249 Y93.642 E9.54977
G1 X128.421 Y92.896 E9.57523
G1 X128.42 Y92.132 E9.60064
G1 X128.246 Y91.388 E9.62606
G1 X127.906 Y90.702 E9.65152
G1 X127.423 Y90.111 E9.67691
G1 X126.816 Y89.646 E9.70234
G1 X126.121 Y89.329 E9.72775
G1 X125.382 Y89.181 E9.75281
G1 X124.977 Y89.17 E9.76629
G1 X124.233 Y89.278 E9.79129
G1 X123.52 Y89.556 E9.81675
G1 X122.891 Y89.989 E9.84215
G1 X122.375 Y90.553 E9.86757
G1 X122 Y91.219 E9.89299
G1 X121.786 Y91.954 E9.91845
G1 X121.742 Y92.717 E9.94387
G1 X121.874 Y93.469 E9.96927
G1 X122.173 Y94.174 E9.99474
G1 X122.624 Y94.791 E10.02016
G1 X123.202 Y95.291 E10.04558
G1 X123.879 Y95.646 E10.071
G1 X124.619 Y95.839 E10.09644
G0 F3600 X124.605 Y95.938
G0 X121.907 Y104.444
G0 X121.994 Y105.918
G0 X122.745 Y107.189
G0 X123.974 Y108.034
G0 X124.006 Y107.94
G1 F1800 X124.725 Y108.091 E10.12087
G1 X125.458 Y108.069 E10.14526
G1 X126.168 Y107.876 E10.16973
G1 X126.809 Y107.521 E10.19411
G1 X127.351 Y107.026 E10.21852
G1 X127.76 Y106.417 E10.24292
G1 X128.017 Y105.729 E10.26735
G1 X128.103 Y105 E10.29176
G1 X128.017 Y104.271 E10.31618
G1 X127.76 Y103.583 E10.3406
G1 X127.351 Y102.974 E10.365
G1 X126.809 Y102.479 E10.38942
G1 X126.168 Y102.124 E10.41379
G1 X125.468 Y101.933 E10.43792
G1 X125.058 Y101.899 E10.4516
G1 X124.361 Y101.964 E10.47489
G1 X123.666 Y102.198 E10.49928
G1 X123.045 Y102.591 E10.52372
G1 X122.534 Y103.116 E10.54809
G1 X122.16 Y103.748 E10.57251
G1 X121.946 Y104.451 E10.59695
G1 X121.902 Y105.184 E10.62138
G1 X122.032 Y105.907 E10.64581
G1 X122.328 Y106.578 E10.6702
G1 X122.773 Y107.162 E10.69462
G1 X123.343 Y107.624 E10.71903
G1 X124.006 Y107.94 E10.74346
G0 F3600 X123.974 Y108.034
G0 X121.747 Y116.866
G0 X121.836 Y118.398
G0 X122.595 Y119.736
G0 X123.567 Y120.445
G0 X124.605 Y120.854
G0 X124.619 Y120.756
G1 F1800 X125.383 Y120.779 E10.76888
G1 X126.131 Y120.623 E10.79429
G1 X126.826 Y120.307 E10.81968
G1 X127.431 Y119.839 E10.84512
G1 X127.913 Y119.245 E10.87057
G1 X128.249 Y118.56 E10.89594
G1 X128.421 Y117.814 E10.92141
G1 X128.42 Y117.049 E10.94685
G1 X128.246 Y116.307 E10.9722
G1 X127.906 Y115.62 E10.99769
G1 X127.423 Y115.03 E11.02305
G1 X126.816 Y114.564 E11.04851
G1 X126.121 Y114.247 E11.07391
G1 X125.382 Y114.099 E11.09898
G1 X124.977 Y114.088 E11.11246
G1 X124.233 Y114.196 E11.13746
G1 X123.52 Y114.474 E11.16291
G1 X122.891 Y114.907 E11.18831
G1 X122.375 Y115.471 E11.21374
G1 X122 Y116.137 E11.23916
G1 X121.786 Y116.872 E11.26462
G1 X121.742 Y117.635 E11.29004
G1 X121.874 Y118.387 E11.31543
G1 X122.173 Y119.092 E11.3409
G1 X122.624 Y119.709 E11.36632
G1 X123.202 Y120.209 E11.39174
G1 X123.879 Y120.564 E11.41717
G1 X124.619 Y120.756 E11.4426
G0 F3600 X124.605 Y120.854
G0 X134.33 Y124.33
G0 X134.4 Y124.4
G1 F1800 X115.6 Y124.4 E12.06789
G1 X115.6 Y85.6 E13.35838
G1 X134.4 Y85.6 E13.98367
G1 X134.4 Y124.4 E15.27416
G0 F3600 X134.8 Y124.8
;TYPE:WALL-OUTER
G1 F1800 X115.2 Y124.8 E15.92606
G1 X115.2 Y85.2 E17.24316
G1 X134.8 Y85.2 E17.89506
G1 X134.8 Y124.8 E19.21216
G0 F3600 X134.6 Y124.8
G0 X134.33 Y124.33
G0 X124.55 Y120.84
G0 X124.676 Y120.358
G1 F1800 X125.348 Y120.378 E19.23452
G1 X126.006 Y120.241 E19.25688
G1 X126.618 Y119.962 E19.27925
G1 X127.15 Y119.551 E19.30161
G1 X127.574 Y119.028 E19.324
G1 X127.87 Y118.425 E19.34634
G1 X128.021 Y117.769 E19.36873
G1 X128.02 Y117.096 E19.39112
G1 X127.867 Y116.443 E19.41342
G1 X127.568 Y115.838 E19.43587
G1 X127.143 Y115.319 E19.45818
G1 X126.609 Y114.909 E19.48057
G1 X125.997 Y114.63 E19.50294
G1 X125.337 Y114.498 E19.52533
G1 X125 Y114.489 E19.53654
G1 X124.336 Y114.585 E19.55886
G1 X123.709 Y114.83 E19.58125
G1 X123.155 Y115.211 E19.60361
G1 X122.701 Y115.707 E19.62597
G1 X122.371 Y116.293 E19.64834
G1 X122.183 Y116.94 E19.67075
G1 X122.144 Y117.612 E19.69314
G1 X122.26 Y118.273 E19.71546
G1 X122.523 Y118.893 E19.73786
G1 X122.92 Y119.436 E19.76023
G1 X123.429 Y119.876 E19.78261
G1 X124.024 Y120.188 E19.80496
G1 X124.676 Y120.358 E19.82737
G0 F3600 X124.876 Y120.363
G0 X124.86 Y120.863
G0 X123.865 Y120.601
G0 X122.595 Y119.736
G0 X121.836 Y118.398
G0 X121.738 Y117.014
G0 X124.032 Y108.046
G0 X124.135 Y107.558
G1 F1800 X124.761 Y107.69 E19.84865
G1 X125.399 Y107.671 E19.86988
G1 X126.016 Y107.503 E19.89114
G1 X126.574 Y107.194 E19.91236
G1 X127.046 Y106.763 E19.93362
G1 X127.402 Y106.233 E19.95485
G1 X127.625 Y105.634 E19.97611
G1 X127.7 Y105 E19.99735
G1 X127.625 Y104.366 E20.01858
G1 X127.402 Y103.767 E20.03984
G1 X127.046 Y103.237 E20.06107
G1 X126.574 Y102.806 E20.08233
G1 X126.016 Y102.497 E20.10355
G1 X125.398 Y102.329 E20.12485
G1 X125.06 Y102.301 E20.13613
G1 X124.444 Y102.358 E20.1567
G1 X123.839 Y102.562 E20.17794
G1 X123.299 Y102.904 E20.1992
G1 X122.854 Y103.361 E20.22042
G1 X122.529 Y103.911 E20.24166
G1 X122.342 Y104.522 E20.26292
G1 X122.304 Y105.16 E20.28417
G1 X122.417 Y105.789 E20.30543
G1 X122.675 Y106.373 E20.32666
G1 X123.062 Y106.881 E20.3479
G1 X123.558 Y107.283 E20.36914
G1 X124.135 Y107.558 E20.3904
G0 F3600 X124.33 Y107.599
G0 X124.227 Y108.087
G0 X123.322 Y107.657
G0 X122.294 Y106.598
G0 X121.863 Y105.186
G0 X124.662 Y95.94
G0 X124.676 Y95.44
G1 F1800 X125.347 Y95.459 E20.41273
G1 X126.006 Y95.323 E20.43511
G1 X126.618 Y95.043 E20.45749
G1 X127.15 Y94.633 E20.47983
G1 X127.574 Y94.11 E20.50222
G1 X127.87 Y93.507 E20.52456
G1 X128.021 Y92.851 E20.54695
G1 X128.02 Y92.178 E20.56934
G1 X127.867 Y91.524 E20.59168
G1 X127.568 Y90.92 E20.61409
G1 X127.143 Y90.4 E20.63643
G1 X126.609 Y89.991 E20.6588
G1 X125.997 Y89.712 E20.68117
G1 X125.337 Y89.58 E20.70356
G1 X125 Y89.571 E20.71477
G1 X124.336 Y89.667 E20.73709
G1 X123.709 Y89.912 E20.75948
G1 X123.155 Y90.293 E20.78184
G1 X122.701 Y90.789 E20.8042
G1 X122.371 Y91.375 E20.82657
G1 X122.183 Y92.022 E20.84898
G1 X122.144 Y92.694 E20.87137
G1 X122.26 Y93.355 E20.89369
G1 X122.523 Y93.975 E20.91609
G1 X122.92 Y94.518 E20.93846
G1 X123.429 Y94.958 E20.96084
G1 X124.024 Y95.27 E20.98319
G1 X124.676 Y95.44 E21.0056
G0 F3600 X124.876 Y95.445
G0 X124.564 Y96.227
;TYPE:SKIN
G1 F1800 X125.417 Y96.252 E21.03398
G1 X126.254 Y96.079 E21.06241
G1 X127.029 Y95.724 E21.09076
G1 X127.706 Y95.202 E21.11919
G1 X128.244 Y94.538 E21.14762
G1 X128.619 Y93.773 E21.17595
G1 X128.811 Y92.94 E21.20439
G1 X128.81 Y92.087 E21.23276
G1 X128.615 Y91.255 E21.26118
G1 X128.236 Y90.489 E21.2896
G1 X127.696 Y89.829 E21.31797
G1 X127.018 Y89.309 E21.34639
G1 X126.242 Y88.955 E21.37475
G1 X125.426 Y88.793 E21.40242
G1 X124.954 Y88.78 E21.41813
G1 X124.133 Y88.898 E21.44572
G1 X123.336 Y89.209 E21.47417
G1 X122.633 Y89.693 E21.50256
G1 X122.057 Y90.323 E21.53095
G1 X121.638 Y91.067 E21.55935
G1 X121.4 Y91.888 E21.58778
G1 X121.35 Y92.74 E21.61617
G1 X121.498 Y93.58 E21.64454
G1 X121.832 Y94.367 E21.67297
G1 X122.335 Y95.057 E21.70137
G1 X122.981 Y95.615 E21.72976
G1 X123.737 Y96.012 E21.75816
G1 X124.564 Y96.227 E21.78659
G0 F3600 X125.056 Y101.507
G1 F1800 X124.279 Y101.58 E21.81254
G1 X123.497 Y101.843 E21.83998
G1 X122.797 Y102.286 E21.86754
G1 X122.222 Y102.878 E21.89498
G1 X121.801 Y103.59 E21.9225
G1 X121.56 Y104.381 E21.95
G1 X121.51 Y105.207 E21.97752
G1 X121.656 Y106.022 E22.00506
G1 X121.99 Y106.777 E22.03252
G1 X122.491 Y107.435 E22.06003
G1 X123.134 Y107.956 E22.08755
G1 X123.881 Y108.312 E22.11507
G1 X124.69 Y108.483 E22.14258
G1 X125.516 Y108.457 E22.17006
G1 X126.316 Y108.24 E22.19763
G1 X127.038 Y107.84 E22.22509
G1 X127.649 Y107.282 E22.25261
G1 X128.109 Y106.596 E22.28008
G1 X128.399 Y105.821 E22.3076
G1 X128.495 Y105 E22.33509
G1 X128.399 Y104.179 E22.36259
G1 X128.109 Y103.404 E22.39011
G1 X127.649 Y102.718 E22.41758
G1 X127.038 Y102.16 E22.4451
G1 X126.316 Y101.76 E22.47255
G1 X125.536 Y101.547 E22.49945
G1 X125.056 Y101.507 E22.51547
G0 F3600 X126.832 Y102.447
G0 X127.795 Y103.565
G0 X128.143 Y105
G0 X124.954 Y113.698
G1 F1800 X124.133 Y113.816 E22.54305
G1 X123.336 Y114.127 E22.57151
G1 X122.633 Y114.611 E22.5999
G1 X122.057 Y115.241 E22.62829
G1 X121.638 Y115.985 E22.65669
G1 X121.4 Y116.806 E22.68512
G1 X121.35 Y117.658 E22.7135
G1 X121.498 Y118.498 E22.74187
G1 X121.832 Y119.285 E22.77031
G1 X122.335 Y119.975 E22.79871
G1 X122.981 Y120.533 E22.8271
G1 X123.737 Y120.93 E22.8555
G1 X124.564 Y121.144 E22.88391
G1 X125.418 Y121.171 E22.91233
G1 X126.254 Y120.996 E22.94074
G1 X127.029 Y120.643 E22.96906
G1 X127.706 Y120.12 E22.99752
G1 X128.244 Y119.456 E23.02594
G1 X128.619 Y118.691 E23.05428
G1 X128.811 Y117.858 E23.08271
G1 X128.81 Y117.004 E23.11112
G1 X128.615 Y116.174 E23.13947
G1 X128.236 Y115.407 E23.16793
G1 X127.696 Y114.748 E23.19626
G1 X127.019 Y114.227 E23.22468
G1 X126.242 Y113.873 E23.25308
G1 X125.426 Y113.711 E23.28075
G1 X124.954 Y113.698 E23.29645
G0 F3600 X121.994 Y105.918
G0 X115.99 Y85.99
G1 F1800 X134.01 Y85.99 E23.8958
G1 X134.01 Y124.01 E25.16035
G1 X115.99 Y124.01 E25.7597
G1 X115.99 Y85.99 E27.02425
G0 F3600 X133.829 Y86.312
G1 F1800 X133.687 Y86.17 E27.03093
G0 F3600 X133.122 Y86.17
G1 F1800 X133.829 Y86.877 E27.06418
G0 F3600 X133.829 Y87.443
G1 F1800 X132.556 Y86.17 E27.12406
G0 F3600 X131.99 Y86.17
G1 F1800 X133.829 Y88.009 E27.21056
G0 F3600 X133.829 Y88.575
G1 F1800 X131.424 Y86.17 E27.32368
G0 F3600 X130.859 Y86.17
G1 F1800 X133.829 Y89.14 E27.46338
G0 F3600 X133.829 Y89.706
G1 F1800 X130.293 Y86.17 E27.62971
G0 F3600 X129.727 Y86.17
G1 F1800 X133.829 Y90.272 E27.82265
G0 F3600 X133.829 Y90.837
G1 F1800 X129.162 Y86.17 E28.04217
G0 F3600 X128.596 Y86.17
G1 F1800 X133.829 Y91.403 E28.28832
G0 F3600 X133.829 Y91.969
G1 F1800 X128.03 Y86.17 E28.56109
G0 F3600 X127.465 Y86.17
G1 F1800 X133.829 Y92.534 E28.86043
G0 F3600 X133.829 Y93.1
G1 F1800 X126.899 Y86.17 E29.18639
G0 F3600 X126.333 Y86.17
G1 F1800 X133.829 Y93.666 E29.53898
G0 F3600 X133.829 Y94.231
G1 F1800 X125.768 Y86.17 E29.91815
G0 F3600 X125.202 Y86.17
G1 F1800 X133.829 Y94.797 E30.32394
G0 F3600 X133.829 Y95.363
G1 F1800 X124.636 Y86.17 E30.75635
G0 F3600 X124.071 Y86.17
G1 F1800 X127.005 Y89.104 E30.89435
G1 X127.075 Y89.174
G0 F3600 X126.073 Y88.738
G1 F1800 X123.505 Y86.17 E31.01514
G0 F3600 X122.939 Y86.17
G1 F1800 X125.381 Y88.611 E31.12998
G0 F3600 X124.82 Y88.616
G1 F1800 X122.374 Y86.17 E31.24504
G0 F3600 X121.808 Y86.17
G1 F1800 X124.326 Y88.688 E31.36348
G0 F3600 X123.876 Y88.804
G1 F1800 X121.242 Y86.17 E31.48737
G0 F3600 X120.676 Y86.17
G1 F1800 X123.47 Y88.963 E31.61877
G0 F3600 X123.095 Y89.154
G1 F1800 X120.111 Y86.17 E31.75913
G0 F3600 X119.545 Y86.17
G1 F1800 X122.76 Y89.385 E31.91035
G0 F3600 X122.443 Y89.633
G1 F1800 X118.979 Y86.17 E32.07326
G0 F3600 X118.414 Y86.17
G1 F1800 X122.173 Y89.929 E32.25007
G0 F3600 X121.904 Y90.226
G1 F1800 X117.848 Y86.17 E32.44086
G0 F3600 X117.282 Y86.17
G1 F1800 X121.7 Y90.587 E32.64864
G0 F3600 X121.496 Y90.949
G1 F1800 X116.717 Y86.17 E32.87343
G0 F3600 X116.169 Y86.187
G1 F1800 X121.36 Y91.378 E33.1176
G0 F3600 X121.232 Y91.817
G1 F1800 X116.169 Y86.753 E33.35577
G0 F3600 X116.169 Y87.319
G1 F1800 X121.192 Y92.342 E33.59204
G0 F3600 X121.196 Y92.912
G1 F1800 X116.169 Y87.884 E33.82852
G0 F3600 X116.169 Y88.45
G1 F1800 X121.318 Y93.599 E34.07071
G1 X121.388 Y93.669
G0 F3600 X121.847 Y94.694
G1 F1800 X116.169 Y89.016 E34.33779
G0 F3600 X116.169 Y89.581
G1 F1800 X133.829 Y107.242 E35.16848
G0 F3600 X133.829 Y106.676
G1 F1800 X122.96 Y95.808 E35.6797
G1 X122.89 Y95.738
G0 F3600 X123.98 Y96.261
G1 F1800 X133.829 Y106.111 E36.14299
G0 F3600 X133.829 Y105.545
G1 F1800 X124.695 Y96.411 E36.57263
G0 F3600 X125.278 Y96.428
G1 F1800 X133.829 Y104.979 E36.97484
G0 F3600 X133.829 Y104.414
G1 F1800 X125.777 Y96.361 E37.35361
G0 F3600 X126.245 Y96.264
G1 F1800 X133.829 Y103.848 E37.71033
G0 F3600 X133.829 Y103.282
G1 F1800 X126.644 Y96.097 E38.04829
G0 F3600 X127.033 Y95.921
G1 F1800 X133.829 Y102.717 E38.36796
G0 F3600 X133.829 Y102.151
G1 F1800 X127.368 Y95.689 E38.67189
G0 F3600 X127.687 Y95.443
G1 F1800 X133.829 Y101.585 E38.96079
G0 F3600 X133.829 Y101.02
G1 F1800 X127.969 Y95.159 E39.23645
G0 F3600 X128.222 Y94.847
G1 F1800 X133.829 Y100.454 E39.50018
G0 F3600 X133.829 Y99.888
