;FLAVOR:Marlin
;TIME:4328
;Filament used: 3.01884m
;Layer height: 0.15
;MINX:105.9
;MINY:77.9
;MINZ:0.2
;MAXX:144.1
;MAXY:132.1
;MAXZ:39.95
;Generated with Cura_SteamEngine 4.13.0
M82 ;absolute extrusion mode
G21 ; set units to millimeters
G90 ; use absolute positioning
M82 ; absolute extrusion mode
M104 S200 ; set extruder temp
M140 S60 ; set bed temp
M190 S60 ; wait for bed temp
M109 S200 ; wait for extruder temp
G28 W ; home all without mesh bed level
G80 ; mesh bed leveling
G92 E0.0 ; reset extruder distance position
G1 Y-3.0 F1000.0 ; go outside print area
G1 X60.0 E9.0 F1000.0 ; intro line
G1 X100.0 E21.5 F1000.0 ; intro line
G92 E0.0 ; reset extruder distance position
G92 E0
G92 E0
G1 F2100 E-0.8
;LAYER_COUNT:266
;LAYER:0
M107
G0 F3600 X106.558 Y79.447 Z0.2
;TYPE:SKIRT
G1 F2100 E0
G1 F1800 X106.897 Y79.031 E0.01785
G1 X107.294 Y78.671 E0.03567
G1 X107.741 Y78.373 E0.05354
G1 X108.226 Y78.145 E0.07137
G1 X108.74 Y77.992 E0.0892
G1 X109.408 Y77.91 E0.11159
G1 X109.83 Y77.9 E0.12563
G1 X139.845 Y77.9 E1.12393
G1 X140.543 Y77.91 E1.14715
G1 X141.077 Y77.958 E1.16498
G1 X141.598 Y78.084 E1.18281
G1 X142.095 Y78.287 E1.20067
G1 X142.556 Y78.561 E1.2185
G1 X142.971 Y78.9 E1.23632
G1 X143.331 Y79.298 E1.25417
G1 X143.628 Y79.744 E1.272
G1 X143.856 Y80.23 E1.28985
G1 X144.008 Y80.744 E1.30768
G1 X144.09 Y81.409 E1.32996
G1 X144.1 Y81.83 E1.34397
G1 X144.1 Y127.809 E2.87324
G1 X144.091 Y128.536 E2.89742
G1 X144.044 Y129.07 E2.91525
G1 X143.919 Y129.591 E2.93307
G1 X143.717 Y130.088 E2.95091
G1 X143.444 Y130.55 E2.96876
G1 X143.106 Y130.966 E2.98659
G1 X142.709 Y131.327 E3.00444
G1 X142.263 Y131.625 E3.02228
G1 X141.778 Y131.853 E3.0401
G1 X141.264 Y132.007 E3.05795
G1 X140.592 Y132.09 E3.08047
G1 X140.17 Y132.1 E3.09451
G1 X110.161 Y132.1 E4.09261
G1 X109.463 Y132.091 E4.11583
G1 X108.928 Y132.044 E4.13369
G1 X108.407 Y131.918 E4.15152
G1 X107.91 Y131.716 E4.16936
G1 X107.449 Y131.443 E4.18718
G1 X107.033 Y131.104 E4.20503
G1 X106.672 Y130.708 E4.22285
G1 X106.374 Y130.262 E4.2407
G1 X106.146 Y129.776 E4.25855
G1 X105.993 Y129.262 E4.27639
G1 X105.91 Y128.588 E4.29897
G1 X105.9 Y128.158 E4.31328
G1 X105.9 Y82.125 E5.84434
G1 X105.909 Y81.46 E5.86646
G1 X105.957 Y80.926 E5.8843
G1 X106.083 Y80.405 E5.90212
G1 X106.285 Y79.908 E5.91997
G1 X106.558 Y79.447 E5.93779
G0 F3600 X106.954 Y79.582
G1 F1800 X107.289 Y79.204 E5.95459
G1 X107.68 Y78.883 E5.97141
G1 X108.117 Y78.628 E5.98824
G1 X108.588 Y78.444 E6.00506
G1 X109.082 Y78.338 E6.02186
G1 X109.74 Y78.301 E6.04378
G1 X139.839 Y78.3 E7.04488
G1 X140.537 Y78.31 E7.0681
G1 X141.04 Y78.357 E7.0849
G1 X141.53 Y78.483 E7.10173
G1 X141.994 Y78.685 E7.11856
G1 X142.42 Y78.957 E7.13537
G1 X142.798 Y79.292 E7.15217
G1 X143.118 Y79.683 E7.16897
G1 X143.373 Y80.12 E7.1858
G1 X143.556 Y80.591 E7.20261
G1 X143.663 Y81.085 E7.21942
G1 X143.699 Y81.74 E7.24124
G1 X143.7 Y127.804 E8.77333
G1 X143.691 Y128.531 E8.79752
G1 X143.645 Y129.034 E8.81432
G1 X143.52 Y129.524 E8.83114
G1 X143.319 Y129.988 E8.84795
G1 X143.048 Y130.415 E8.86477
G1 X142.713 Y130.794 E8.8816
G1 X142.323 Y131.115 E8.8984
G1 X141.887 Y131.371 E8.91522
G1 X141.416 Y131.554 E8.93202
G1 X140.922 Y131.662 E8.94884
G1 X140.26 Y131.699 E8.97089
G1 X110.166 Y131.7 E9.97182
G1 X109.468 Y131.691 E9.99504
G1 X108.964 Y131.644 E10.01188
G1 X108.474 Y131.519 E10.0287
G1 X108.01 Y131.318 E10.04551
G1 X107.584 Y131.047 E10.06231
G1 X107.205 Y130.712 E10.07913
G1 X106.884 Y130.321 E10.09596
G1 X106.629 Y129.885 E10.11276
G1 X106.445 Y129.414 E10.12958
G1 X106.338 Y128.92 E10.14639
G1 X106.301 Y128.244 E10.1689
G1 X106.3 Y82.131 E11.70263
G1 X106.309 Y81.466 E11.72475
G1 X106.356 Y80.962 E11.74158
G1 X106.482 Y80.473 E11.75838
G1 X106.683 Y80.009 E11.7752
G1 X106.954 Y79.582 E11.79202
G1 F2100 E10.99202
;MESH:fixation_plaque.STL
G0 F3600 X108.835 Y82.114
G0 X110.114 Y82.114
G0 X122.414 Y110.79
G0 X122.924 Y111.509
G0 X124.45 Y112.399
G1 F2100 E11.79202
G0 F3600 X124.468 Y112.301
;TYPE:WALL-INNER
G1 F1800 X124.9 Y112.349 E11.80648
G1 X125.335 Y112.331 E11.82096
G1 X125.763 Y112.248 E11.83546
G1 X126.174 Y112.099 E11.85
G1 X126.556 Y111.889 E11.8645
G1 X126.903 Y111.623 E11.87904
G1 X127.205 Y111.308 E11.89355
G1 X127.456 Y110.95 E11.90809
G1 X127.647 Y110.558 E11.9226
G1 X127.779 Y110.141 E11.93715
G1 X127.843 Y109.709 E11.95167
G1 X127.842 Y109.273 E11.96617
G1 X127.774 Y108.843 E11.98065
G1 X127.642 Y108.426 E11.9952
G1 X127.446 Y108.036 E12.00972
G1 X127.194 Y107.679 E12.02425
G1 X126.891 Y107.366 E12.03874
G1 X126.542 Y107.101 E12.05332
G1 X126.158 Y106.896 E12.06779
G1 X125.747 Y106.748 E12.08232
G1 X125.317 Y106.667 E12.09688
G1 X124.883 Y106.652 E12.11132
G1 X124.45 Y106.702 E12.12582
G1 X124.028 Y106.819 E12.14038
G1 X123.63 Y106.999 E12.15491
G1 X123.265 Y107.238 E12.16942
G1 X122.94 Y107.529 E12.18393
G1 X122.667 Y107.861 E12.19823
G1 X122.442 Y108.242 E12.21294
G1 X122.281 Y108.645 E12.22738
G1 X122.182 Y109.064 E12.2417
G1 X122.148 Y109.5 E12.25624
G1 X122.183 Y109.942 E12.27099
G1 X122.284 Y110.369 E12.28558
G1 X122.449 Y110.773 E12.3001
G1 X122.673 Y111.147 E12.3146
G1 X122.952 Y111.482 E12.3291
G1 X123.278 Y111.772 E12.34361
G1 X123.644 Y112.009 E12.35811
G1 X124.044 Y112.187 E12.37268
G1 X124.468 Y112.301 E12.38728
G0 F3600 X124.45 Y112.399
G0 X122.635 Y114.839
G0 X122.243 Y115.633
G0 X122.108 Y116.5
G0 X122.246 Y117.381
G0 X122.641 Y118.17
G0 X123.254 Y118.803
G0 X124.45 Y119.399
G0 X124.468 Y119.301
G1 F1800 X124.9 Y119.349 E12.40174
G1 X125.335 Y119.331 E12.41622
G1 X125.763 Y119.248 E12.43072
G1 X126.174 Y119.099 E12.44526
G1 X126.556 Y118.889 E12.45976
G1 X126.903 Y118.623 E12.4743
G1 X127.205 Y118.308 E12.48881
G1 X127.456 Y117.95 E12.50335
G1 X127.647 Y117.558 E12.51786
G1 X127.779 Y117.141 E12.5324
G1 X127.843 Y116.709 E12.54693
G1 X127.842 Y116.273 E12.56143
G1 X127.774 Y115.843 E12.57591
G1 X127.642 Y115.426 E12.59046
G1 X127.446 Y115.036 E12.60498
G1 X127.194 Y114.679 E12.61951
G1 X126.891 Y114.366 E12.634
G1 X126.542 Y114.101 E12.64857
G1 X126.158 Y113.896 E12.66305
G1 X125.747 Y113.748 E12.67758
G1 X125.317 Y113.667 E12.69213
G1 X124.883 Y113.652 E12.70658
G1 X124.45 Y113.702 E12.72108
G1 X124.028 Y113.819 E12.73564
G1 X123.63 Y113.999 E12.75017
G1 X123.265 Y114.238 E12.76468
G1 X122.94 Y114.529 E12.77919
G1 X122.667 Y114.861 E12.79349
G1 X122.442 Y115.242 E12.8082
G1 X122.281 Y115.645 E12.82264
G1 X122.182 Y116.064 E12.83696
G1 X122.148 Y116.5 E12.8515
G1 X122.183 Y116.942 E12.86625
G1 X122.284 Y117.369 E12.88084
G1 X122.449 Y117.773 E12.89536
G1 X122.673 Y118.147 E12.90986
G1 X122.952 Y118.482 E12.92436
G1 X123.278 Y118.772 E12.93887
G1 X123.644 Y119.009 E12.95337
G1 X124.044 Y119.187 E12.96793
G1 X124.468 Y119.301 E12.98254
G0 F3600 X124.45 Y119.399
G0 X139.83 Y127.83
G0 X139.9 Y127.9
G1 F1800 X110.1 Y127.9 E13.97369
G1 X110.1 Y82.1 E15.497
G1 X139.9 Y82.1 E16.48816
G1 X139.9 Y127.9 E18.01147
G0 F3600 X140.3 Y128.3
;TYPE:WALL-OUTER
G1 F1800 X109.7 Y128.3 E19.02923
G1 X109.7 Y81.7 E20.57915
G1 X140.3 Y81.7 E21.59691
G1 X140.3 Y128.3 E23.14683
G0 F3600 X140.1 Y128.3
G0 X139.83 Y127.83
G0 X124.413 Y119.388
G0 X124.542 Y118.907
G1 F1800 X124.914 Y118.948 E23.15928
G1 X125.288 Y118.933 E23.17173
G1 X125.656 Y118.861 E23.1842
G1 X126.009 Y118.733 E23.19669
G1 X126.337 Y118.553 E23.20914
G1 X126.636 Y118.324 E23.22166
G1 X126.895 Y118.054 E23.23411
G1 X127.11 Y117.746 E23.2466
G1 X127.275 Y117.409 E23.25908
G1 X127.388 Y117.051 E23.27157
G1 X127.443 Y116.68 E23.28404
G1 X127.442 Y116.305 E23.29651
G1 X127.384 Y115.935 E23.30897
G1 X127.27 Y115.577 E23.32147
G1 X127.102 Y115.242 E23.33393
G1 X126.885 Y114.935 E23.34643
G1 X126.625 Y114.666 E23.35888
G1 X126.325 Y114.439 E23.37139
G1 X125.995 Y114.262 E23.38384
G1 X125.642 Y114.135 E23.39632
G1 X125.273 Y114.066 E23.40881
G1 X124.899 Y114.053 E23.42126
G1 X124.527 Y114.096 E23.43371
G1 X124.165 Y114.196 E23.4462
G1 X123.823 Y114.351 E23.45869
G1 X123.509 Y114.556 E23.47116
G1 X123.23 Y114.806 E23.48362
G1 X122.996 Y115.091 E23.49589
G1 X122.802 Y115.419 E23.50856
G1 X122.663 Y115.766 E23.52099
G1 X122.578 Y116.126 E23.5333
G1 X122.549 Y116.5 E23.54577
G1 X122.579 Y116.88 E23.55845
G1 X122.666 Y117.246 E23.57096
G1 X122.808 Y117.594 E23.58347
G1 X123 Y117.915 E23.59591
G1 X123.24 Y118.203 E23.60838
G1 X123.521 Y118.453 E23.62088
G1 X123.835 Y118.656 E23.63332
G1 X124.178 Y118.809 E23.64581
G1 X124.542 Y118.907 E23.65835
G0 F3600 X124.74 Y118.928
G0 X124.684 Y119.425
G0 X123.625 Y119.044
G0 X122.924 Y118.509
G0 X122.414 Y117.79
G0 X122.144 Y116.948
G0 X122.143 Y116.058
G0 X122.407 Y115.225
G0 X124.413 Y112.388
G0 X124.542 Y111.907
G1 F1800 X124.914 Y111.948 E23.6708
G1 X125.288 Y111.933 E23.68325
G1 X125.656 Y111.861 E23.69572
G1 X126.009 Y111.733 E23.70821
G1 X126.337 Y111.553 E23.72065
G1 X126.636 Y111.324 E23.73318
G1 X126.895 Y111.054 E23.74562
G1 X127.11 Y110.746 E23.75812
G1 X127.275 Y110.409 E23.7706
G1 X127.388 Y110.051 E23.78308
G1 X127.443 Y109.68 E23.79556
G1 X127.442 Y109.305 E23.80803
G1 X127.384 Y108.935 E23.82049
G1 X127.27 Y108.577 E23.83298
G1 X127.102 Y108.242 E23.84545
G1 X126.885 Y107.935 E23.85795
G1 X126.625 Y107.666 E23.87039
G1 X126.325 Y107.439 E23.88291
G1 X125.995 Y107.262 E23.89536
G1 X125.642 Y107.135 E23.90784
G1 X125.273 Y107.066 E23.92032
G1 X124.899 Y107.053 E23.93277
G1 X124.527 Y107.096 E23.94523
G1 X124.165 Y107.196 E23.95772
G1 X123.823 Y107.351 E23.97021
G1 X123.509 Y107.556 E23.98268
G1 X123.23 Y107.806 E23.99514
G1 X122.996 Y108.091 E24.0074
G1 X122.802 Y108.419 E24.02008
G1 X122.663 Y108.766 E24.03251
G1 X122.578 Y109.126 E24.04481
G1 X122.549 Y109.5 E24.05729
G1 X122.579 Y109.88 E24.06997
G1 X122.666 Y110.246 E24.08248
G1 X122.808 Y110.594 E24.09498
G1 X123 Y110.915 E24.10742
G1 X123.24 Y111.203 E24.11989
G1 X123.521 Y111.453 E24.1324
G1 X123.835 Y111.656 E24.14484
G1 X124.178 Y111.809 E24.15733
G1 X124.542 Y111.907 E24.16987
G0 F3600 X124.74 Y111.928
G0 X124.886 Y112.739
;TYPE:SKIN
G1 F1800 X125.38 Y112.719 E24.18631
G1 X125.867 Y112.625 E24.20281
G1 X126.335 Y112.456 E24.21936
G1 X126.77 Y112.216 E24.23588
G1 X127.164 Y111.914 E24.25239
G1 X127.507 Y111.556 E24.26888
G1 X127.793 Y111.149 E24.28543
G1 X128.01 Y110.703 E24.30192
G1 X128.16 Y110.229 E24.31846
G1 X128.233 Y109.738 E24.33497
G1 X128.232 Y109.242 E24.35147
G1 X128.154 Y108.753 E24.36794
G1 X128.005 Y108.278 E24.38449
G1 X127.781 Y107.835 E24.40101
G1 X127.495 Y107.429 E24.41752
G1 X127.15 Y107.073 E24.43401
G1 X126.753 Y106.771 E24.4506
G1 X126.316 Y106.539 E24.46706
G1 X125.85 Y106.37 E24.48355
G1 X125.36 Y106.279 E24.50012
G1 X124.867 Y106.262 E24.51653
G1 X124.376 Y106.318 E24.53296
G1 X123.895 Y106.451 E24.54956
G1 X123.441 Y106.656 E24.56613
G1 X123.027 Y106.928 E24.58261
G1 X122.657 Y107.258 E24.5991
G1 X122.347 Y107.637 E24.61538
G1 X122.091 Y108.07 E24.63211
G1 X121.908 Y108.528 E24.64852
G1 X121.796 Y109.003 E24.66475
G1 X121.756 Y109.5 E24.68133
G1 X121.797 Y110.003 E24.69812
G1 X121.912 Y110.488 E24.7147
G1 X122.1 Y110.948 E24.73122
G1 X122.354 Y111.373 E24.74769
G1 X122.671 Y111.753 E24.76415
G1 X123.04 Y112.084 E24.78064
G1 X123.457 Y112.353 E24.79714
G1 X123.913 Y112.556 E24.81374
G1 X124.396 Y112.685 E24.83037
G1 X124.886 Y112.739 E24.84677
G0 F3600 X124.867 Y113.262
G1 F1800 X124.376 Y113.318 E24.86321
G1 X123.895 Y113.451 E24.8798
G1 X123.441 Y113.656 E24.89637
G1 X123.027 Y113.928 E24.91285
G1 X122.657 Y114.258 E24.92934
G1 X122.347 Y114.637 E24.94562
G1 X122.091 Y115.07 E24.96235
G1 X121.908 Y115.528 E24.97876
G1 X121.796 Y116.003 E24.99499
G1 X121.756 Y116.5 E25.01157
G1 X121.797 Y117.003 E25.02836
G1 X121.912 Y117.488 E25.04494
G1 X122.1 Y117.948 E25.06146
G1 X122.354 Y118.373 E25.07793
G1 X122.671 Y118.753 E25.09439
G1 X123.04 Y119.084 E25.11088
G1 X123.457 Y119.353 E25.12738
G1 X123.913 Y119.556 E25.14398
G1 X124.396 Y119.685 E25.16061
G1 X124.886 Y119.739 E25.17701
G1 X125.38 Y119.719 E25.19345
G1 X125.867 Y119.625 E25.20995
G1 X126.335 Y119.456 E25.2265
G1 X126.77 Y119.216 E25.24302
G1 X127.164 Y118.914 E25.25953
G1 X127.507 Y118.556 E25.27602
G1 X127.793 Y118.149 E25.29257
G1 X128.01 Y117.703 E25.30907
G1 X128.16 Y117.229 E25.3256
G1 X128.233 Y116.738 E25.34211
G1 X128.232 Y116.242 E25.35861
G1 X128.154 Y115.753 E25.37508
G1 X128.005 Y115.278 E25.39164
G1 X127.781 Y114.835 E25.40815
G1 X127.495 Y114.429 E25.42466
G1 X127.15 Y114.073 E25.44115
G1 X126.753 Y113.771 E25.45774
G1 X126.316 Y113.539 E25.4742
G1 X125.85 Y113.37 E25.49069
G1 X125.36 Y113.279 E25.50726
G1 X124.867 Y113.262 E25.52367
G0 F3600 X123.241 Y114.207
G0 X110.49 Y127.51
G1 F1800 X110.49 Y82.49 E27.02104
G1 X139.51 Y82.49 E27.98625
G1 X139.51 Y127.51 E29.48362
G1 X110.49 Y127.51 E30.44883
G0 F3600 X110.924 Y127.329
G1 F1800 X110.669 Y127.074 E30.46083
G0 F3600 X110.669 Y126.508
G1 F1800 X111.49 Y127.329 E30.49944
G0 F3600 X112.055 Y127.329
G1 F1800 X110.669 Y125.942 E30.56466
G0 F3600 X110.669 Y125.377
G1 F1800 X112.621 Y127.329 E30.65648
G0 F3600 X113.187 Y127.329
G1 F1800 X110.669 Y124.811 E30.77491
G0 F3600 X110.669 Y124.245
G1 F1800 X113.752 Y127.329 E30.91995
G0 F3600 X114.318 Y127.329
G1 F1800 X110.669 Y123.68 E31.09159
G0 F3600 X110.669 Y123.114
G1 F1800 X114.884 Y127.329 E31.28985
G0 F3600 X115.45 Y127.329
G1 F1800 X110.669 Y122.548 E31.51473
G0 F3600 X110.669 Y121.982
G1 F1800 X116.015 Y127.329 E31.76622
G0 F3600 X116.581 Y127.329
G1 F1800 X110.669 Y121.417 E32.0443
G0 F3600 X110.669 Y120.851
G1 F1800 X117.147 Y127.329 E32.34901
G0 F3600 X117.712 Y127.329
G1 F1800 X110.669 Y120.285 E32.68031
G0 F3600 X110.669 Y119.72
G1 F1800 X118.278 Y127.329 E33.03821
G0 F3600 X118.844 Y127.329
G1 F1800 X110.669 Y119.154 E33.42274
G0 F3600 X110.669 Y118.588
G1 F1800 X119.409 Y127.329 E33.83387
G0 F3600 X119.975 Y127.329
G1 F1800 X110.669 Y118.023 E34.27159
G0 F3600 X110.669 Y117.457
G1 F1800 X120.541 Y127.329 E34.73594
G0 F3600 X121.106 Y127.329
G1 F1800 X110.669 Y116.891 E35.22689
G0 F3600 X110.669 Y116.326
G1 F1800 X121.672 Y127.329 E35.74444
G0 F3600 X122.238 Y127.329
G1 F1800 X110.669 Y115.76 E36.28861
G0 F3600 X110.669 Y115.194
G1 F1800 X122.803 Y127.329 E36.85938
G0 F3600 X123.369 Y127.329
G1 F1800 X110.669 Y114.629 E37.45675
G0 F3600 X110.669 Y114.063
G1 F1800 X123.935 Y127.329 E38.08074
G0 F3600 X124.5 Y127.329
G1 F1800 X110.669 Y113.497 E38.73133
G0 F3600 X110.669 Y112.932
G1 F1800 X125.066 Y127.329 E39.40852
G0 F3600 X125.632 Y127.329
G1 F1800 X110.669 Y112.366 E40.11233
G0 F3600 X110.669 Y111.8
G1 F1800 X126.198 Y127.329 E40.84277
G0 F3600 X126.763 Y127.329
G1 F1800 X110.669 Y111.234 E41.59981
G0 F3600 X110.669 Y110.669
G1 F1800 X127.329 Y127.329 E42.38344
G0 F3600 X127.895 Y127.329
G1 F1800 X110.669 Y110.103 E43.1937
G0 F3600 X110.669 Y109.537
G1 F1800 X128.46 Y127.329 E44.03056
G0 F3600 X129.026 Y127.329
G1 F1800 X110.669 Y108.972 E44.89401
G0 F3600 X110.669 Y108.406
G1 F1800 X129.592 Y127.329 E45.78409
G0 F3600 X130.157 Y127.329
G1 F1800 X110.669 Y107.84 E46.70077
G0 F3600 X110.669 Y107.275
G1 F1800 X130.723 Y127.329 E47.64405
G0 F3600 X131.289 Y127.329
G1 F1800 X123.552 Y119.592 E48.00798
G1 X123.482 Y119.522
G0 F3600 X124.39 Y119.865
G1 F1800 X131.854 Y127.329 E48.35906
G0 F3600 X132.42 Y127.329
G1 F1800 X125.005 Y119.914 E48.70784
G0 F3600 X125.529 Y119.872
G1 F1800 X132.986 Y127.329 E49.05859
G0 F3600 X133.551 Y127.329
G1 F1800 X125.992 Y119.77 E49.41415
G0 F3600 X126.408 Y119.62
G1 F1800 X134.117 Y127.329 E49.77675
G0 F3600 X134.683 Y127.329
G1 F1800 X126.773 Y119.419 E50.14882
G0 F3600 X127.105 Y119.185
G1 F1800 X135.249 Y127.329 E50.53188
G0 F3600 X135.814 Y127.329
G1 F1800 X127.405 Y118.92 E50.92742
G0 F3600 X127.676 Y118.625
G1 F1800 X136.38 Y127.329 E51.33683
G0 F3600 X136.946 Y127.329
G1 F1800 X127.909 Y118.293 E51.76188
G0 F3600 X128.103 Y117.92
G1 F1800 X137.511 Y127.329 E52.20442
G0 F3600 X138.077 Y127.329
G1 F1800 X128.258 Y117.51 E52.66628
G0 F3600 X128.366 Y117.053
G1 F1800 X138.643 Y127.329 E53.14965
G0 F3600 X139.208 Y127.329
G1 F1800 X128.411 Y116.531 E53.65754
G0 F3600 X128.361 Y115.916
G1 F1800 X139.329 Y126.884 E54.17344
G0 F3600 X139.329 Y126.318
G1 F1800 X128.121 Y115.11 E54.70063
G1 X128.051 Y115.04
