;FLAVOR:Marlin
;TIME:3128
;Filament used: 2.12701m
;Layer height: 0.15
;MINX:95.446
;MINY:81.4
;MINZ:0.2
;MAXX:162.671
;MAXY:128.6
;MAXZ:6.5
;Generated with Cura_SteamEngine 4.13.0
M82 ;absolute extrusion mode
G21 ; set units to millimeters
G90 ; use absolute positioning
M82 ; absolute extrusion mode
M104 S200 ; set extruder temp
M140 S60 ; set bed temp
M190 S60 ; wait for bed temp
M109 S200 ; wait for extruder temp
G28 W ; home all without mesh bed level
G80 ; mesh bed leveling
G92 E0.0 ; reset extruder distance position
G1 Y-3.0 F1000.0 ; go outside print area
G1 X60.0 E9.0 F1000.0 ; intro line
G1 X100.0 E21.5 F1000.0 ; intro line
G92 E0.0 ; reset extruder distance position
G92 E0
G92 E0
G1 F2100 E-0.8
;LAYER_COUNT:43
;LAYER:0
M107
G0 F3600 X96.448 Y82.527 Z0.2
;TYPE:SKIRT
G1 F2100 E0
G1 F1800 X96.846 Y82.168 E0.01783
G1 X97.292 Y81.871 E0.03565
G1 X97.778 Y81.643 E0.0535
G1 X98.292 Y81.491 E0.07133
G1 X98.955 Y81.41 E0.09355
G1 X99.376 Y81.4 E0.10755
G1 X118.394 Y81.4 E0.74009
G1 X119.108 Y81.411 E0.76385
G1 X119.477 Y81.436 E0.77615
G1 X122.239 Y81.669 E0.86834
G1 X124.933 Y81.821 E0.95808
G1 X127.699 Y81.898 E1.05012
G1 X130.393 Y81.898 E1.13972
G1 X133.157 Y81.819 E1.23169
G1 X135.835 Y81.666 E1.3209
G1 X137.346 Y81.527 E1.37137
G1 X137.605 Y81.523 E1.37999
G1 X138.773 Y81.422 E1.41898
G1 X139.299 Y81.401 E1.43649
G1 X158.41 Y81.4 E2.07212
G1 X159.108 Y81.409 E2.09534
G1 X159.643 Y81.456 E2.1132
G1 X160.164 Y81.582 E2.13103
G1 X160.661 Y81.784 E2.14887
G1 X161.122 Y82.057 E2.16669
G1 X161.538 Y82.396 E2.18454
G1 X161.899 Y82.792 E2.20237
G1 X162.197 Y83.238 E2.22021
G1 X162.425 Y83.724 E2.23806
G1 X162.578 Y84.238 E2.2559
G1 X162.661 Y84.908 E2.27835
G1 X162.671 Y85.33 E2.29239
G1 X162.671 Y124.309 E3.58884
G1 X162.662 Y125.036 E3.61302
G1 X162.615 Y125.57 E3.63085
G1 X162.49 Y126.091 E3.64867
G1 X162.288 Y126.588 E3.66651
G1 X162.015 Y127.05 E3.68436
G1 X161.677 Y127.466 E3.70219
G1 X161.28 Y127.827 E3.72004
G1 X160.834 Y128.125 E3.73788
G1 X160.349 Y128.353 E3.7557
G1 X159.835 Y128.507 E3.77355
G1 X159.163 Y128.59 E3.79607
G1 X158.741 Y128.6 E3.81011
G1 X139.723 Y128.6 E4.44265
G1 X139.008 Y128.589 E4.46643
G1 X138.618 Y128.562 E4.47944
G1 X135.878 Y128.331 E4.57089
G1 X133.185 Y128.179 E4.66061
G1 X130.418 Y128.102 E4.75267
G1 X127.723 Y128.102 E4.84231
G1 X124.96 Y128.181 E4.93424
G1 X122.274 Y128.334 E5.02372
G1 X120.769 Y128.472 E5.07399
G1 X120.527 Y128.476 E5.08204
G1 X119.344 Y128.578 E5.12153
G1 X118.818 Y128.599 E5.13904
G1 X99.707 Y128.6 E5.77468
G1 X99.009 Y128.591 E5.79789
G1 X98.474 Y128.544 E5.81576
G1 X97.953 Y128.418 E5.83359
G1 X97.456 Y128.216 E5.85143
G1 X96.995 Y127.943 E5.86925
G1 X96.579 Y127.604 E5.8871
G1 X96.218 Y127.208 E5.90492
G1 X95.92 Y126.762 E5.92276
G1 X95.692 Y126.276 E5.94062
G1 X95.539 Y125.762 E5.95845
G1 X95.456 Y125.088 E5.98104
G1 X95.446 Y124.658 E5.99534
G1 X95.446 Y85.62 E7.29375
G1 X95.456 Y84.955 E7.31587
G1 X95.504 Y84.421 E7.33371
G1 X95.631 Y83.9 E7.35154
G1 X95.834 Y83.403 E7.3694
G1 X96.108 Y82.942 E7.38724
G1 X96.448 Y82.527 E7.40508
G0 F3600 X96.84 Y82.701
G1 F1800 X97.231 Y82.38 E7.42191
G1 X97.668 Y82.126 E7.43872
G1 X98.139 Y81.943 E7.45552
G1 X98.634 Y81.837 E7.47236
G1 X99.286 Y81.801 E7.49408
G1 X118.388 Y81.8 E8.12941
G1 X119.102 Y81.811 E8.15316
G1 X119.433 Y81.833 E8.1642
G1 X122.217 Y82.068 E8.25712
G1 X124.937 Y82.221 E8.34773
G1 X127.687 Y82.298 E8.43923
G1 X130.404 Y82.298 E8.5296
G1 X133.157 Y82.219 E8.62121
G1 X135.867 Y82.065 E8.71149
G1 X137.383 Y81.925 E8.76212
G1 X137.635 Y81.922 E8.77051
G1 X138.807 Y81.821 E8.80963
G1 X139.311 Y81.801 E8.82641
G1 X158.405 Y81.8 E9.46148
G1 X159.103 Y81.809 E9.48469
G1 X159.607 Y81.856 E9.50153
G1 X160.097 Y81.981 E9.51835
G1 X160.561 Y82.182 E9.53517
G1 X160.987 Y82.453 E9.55196
G1 X161.366 Y82.788 E9.56878
G1 X161.687 Y83.179 E9.58561
G1 X161.942 Y83.615 E9.60241
G1 X162.126 Y84.086 E9.61923
G1 X162.233 Y84.58 E9.63604
G1 X162.27 Y85.24 E9.65803
G1 X162.271 Y124.304 E10.9573
G1 X162.262 Y125.031 E10.98148
G1 X162.216 Y125.534 E10.99828
G1 X162.091 Y126.024 E11.0151
G1 X161.89 Y126.488 E11.03192
G1 X161.619 Y126.915 E11.04874
G1 X161.284 Y127.294 E11.06556
G1 X160.894 Y127.615 E11.08236
G1 X160.458 Y127.871 E11.09918
G1 X159.987 Y128.054 E11.11599
G1 X159.493 Y128.162 E11.13281
G1 X158.831 Y128.199 E11.15486
G1 X139.729 Y128.2 E11.79019
G1 X139.014 Y128.189 E11.81398
G1 X138.684 Y128.167 E11.82498
G1 X135.9 Y127.932 E11.9179
G1 X133.181 Y127.779 E12.00848
G1 X130.43 Y127.702 E12.10001
G1 X127.712 Y127.702 E12.19042
G1 X124.96 Y127.781 E12.28198
G1 X122.246 Y127.936 E12.3724
G1 X120.733 Y128.074 E12.42293
G1 X120.496 Y128.077 E12.43081
G1 X119.31 Y128.179 E12.47041
G1 X118.806 Y128.199 E12.48718
G1 X99.712 Y128.2 E13.12225
G1 X99.014 Y128.191 E13.14547
G1 X98.51 Y128.144 E13.16231
G1 X98.02 Y128.019 E13.17912
G1 X97.556 Y127.818 E13.19594
G1 X97.13 Y127.547 E13.21274
G1 X96.751 Y127.212 E13.22956
G1 X96.43 Y126.821 E13.24639
G1 X96.175 Y126.385 E13.26319
G1 X95.991 Y125.914 E13.28
G1 X95.884 Y125.42 E13.29682
G1 X95.847 Y124.744 E13.31933
G1 X95.846 Y85.626 E14.6204
G1 X95.856 Y84.961 E14.64252
G1 X95.904 Y84.458 E14.65933
G1 X96.03 Y83.968 E14.67616
G1 X96.232 Y83.504 E14.69299
G1 X96.504 Y83.078 E14.7098
G1 X96.84 Y82.701 E14.7266
G1 F2100 E13.9266
;MESH:plaquebis.STL(1)
G0 F3600 X99.66 Y84.335
G0 X99.66 Y85.614
G0 X106.64 Y94.817
G0 X107.614 Y95.527
G0 X108.651 Y95.938
G1 F2100 E14.7266
G0 F3600 X108.665 Y95.839
;TYPE:WALL-INNER
G1 F1800 X109.429 Y95.86 E14.75202
G1 X110.177 Y95.706 E14.77742
G1 X110.872 Y95.388 E14.80284
G1 X111.477 Y94.92 E14.82828
G1 X111.96 Y94.327 E14.85372
G1 X112.296 Y93.641 E14.87912
G1 X112.467 Y92.895 E14.90458
G1 X112.466 Y92.132 E14.92995
G1 X112.292 Y91.387 E14.9554
G1 X111.953 Y90.702 E14.98082
G1 X111.469 Y90.111 E15.00623
G1 X110.862 Y89.646 E15.03166
G1 X110.167 Y89.329 E15.05707
G1 X109.429 Y89.181 E15.0821
G1 X109.024 Y89.17 E15.09558
G1 X108.279 Y89.278 E15.12061
G1 X107.566 Y89.556 E15.14607
G1 X106.936 Y89.99 E15.17151
G1 X106.422 Y90.554 E15.19689
G1 X106.046 Y91.219 E15.2223
G1 X105.833 Y91.954 E15.24775
G1 X105.789 Y92.717 E15.27317
G1 X105.921 Y93.469 E15.29857
G1 X106.22 Y94.173 E15.32401
G1 X106.669 Y94.79 E15.34939
G1 X107.248 Y95.291 E15.37485
G1 X107.926 Y95.646 E15.40031
G1 X108.665 Y95.839 E15.42571
G0 F3600 X108.651 Y95.938
G0 X105.954 Y104.445
G0 X106.04 Y105.918
G0 X106.792 Y107.189
G0 X108.021 Y108.034
G0 X108.053 Y107.94
G1 F1800 X108.771 Y108.091 E15.45011
G1 X109.504 Y108.069 E15.4745
G1 X110.213 Y107.876 E15.49894
G1 X110.857 Y107.521 E15.5234
G1 X111.41 Y107.009 E15.54847
G1 X111.808 Y106.417 E15.57219
G1 X112.063 Y105.728 E15.59663
G1 X112.149 Y105 E15.62101
G1 X112.063 Y104.272 E15.64539
G1 X111.807 Y103.582 E15.66987
G1 X111.382 Y102.959 E15.69495
G1 X110.856 Y102.479 E15.71864
G1 X110.213 Y102.124 E15.74307
G1 X109.514 Y101.933 E15.76717
G1 X109.104 Y101.899 E15.78085
G1 X108.407 Y101.964 E15.80414
G1 X107.712 Y102.198 E15.82853
G1 X107.091 Y102.591 E15.85297
G1 X106.58 Y103.116 E15.87734
G1 X106.207 Y103.749 E15.90177
G1 X105.993 Y104.452 E15.92622
G1 X105.949 Y105.183 E15.95057
G1 X106.078 Y105.907 E15.97503
G1 X106.374 Y106.578 E15.99942
G1 X106.82 Y107.162 E16.02387
G1 X107.39 Y107.624 E16.04827
G1 X108.053 Y107.94 E16.0727
G0 F3600 X108.021 Y108.034
G0 X105.794 Y116.866
G0 X105.883 Y118.398
G0 X106.64 Y119.735
G0 X107.614 Y120.445
G0 X108.651 Y120.854
G0 X108.665 Y120.756
G1 F1800 X109.43 Y120.779 E16.09815
G1 X110.177 Y120.623 E16.12353
G1 X110.872 Y120.307 E16.14893
G1 X111.477 Y119.838 E16.17439
G1 X111.96 Y119.245 E16.19983
G1 X112.296 Y118.559 E16.22523
G1 X112.467 Y117.813 E16.25069
G1 X112.466 Y117.05 E16.27606
G1 X112.292 Y116.306 E16.30148
G1 X111.953 Y115.62 E16.32693
G1 X111.469 Y115.03 E16.35231
G1 X110.862 Y114.564 E16.37776
G1 X110.167 Y114.247 E16.40317
G1 X109.429 Y114.099 E16.4282
G1 X109.024 Y114.088 E16.44168
G1 X108.279 Y114.196 E16.46672
G1 X107.566 Y114.474 E16.49217
G1 X106.936 Y114.908 E16.51761
G1 X106.422 Y115.472 E16.54299
G1 X106.046 Y116.137 E16.5684
G1 X105.833 Y116.872 E16.59386
G1 X105.789 Y117.635 E16.61928
G1 X105.921 Y118.387 E16.64467
G1 X106.22 Y119.091 E16.67011
G1 X106.669 Y119.708 E16.69549
G1 X107.248 Y120.209 E16.72095
G1 X107.926 Y120.564 E16.74641
G1 X108.665 Y120.756 E16.7718
G0 F3600 X108.651 Y120.854
G0 X118.376 Y124.33
G0 X118.446 Y124.4
G1 F1800 X99.646 Y124.4 E17.3971
G1 X99.646 Y85.6 E18.68759
G1 X118.446 Y85.6 E19.31288
G1 X118.446 Y124.4 E20.60337
G0 F3600 X118.846 Y124.8
;TYPE:WALL-OUTER
G1 F1800 X99.246 Y124.8 E21.25527
G1 X99.246 Y85.2 E22.57237
G1 X118.846 Y85.2 E23.22427
G1 X118.846 Y124.8 E24.54137
G0 F3600 X118.646 Y124.8
G0 X118.376 Y124.33
G0 X108.596 Y120.84
G0 X108.722 Y120.358
G1 F1800 X109.395 Y120.378 E24.56377
G1 X110.052 Y120.241 E24.58609
G1 X110.664 Y119.962 E24.60846
G1 X111.196 Y119.55 E24.63084
G1 X111.621 Y119.028 E24.65323
G1 X111.916 Y118.425 E24.67555
G1 X112.067 Y117.768 E24.69798
G1 X112.066 Y117.096 E24.72033
G1 X111.913 Y116.442 E24.74267
G1 X111.615 Y115.838 E24.76507
G1 X111.189 Y115.319 E24.7874
G1 X110.655 Y114.909 E24.80979
G1 X110.043 Y114.63 E24.83216
G1 X109.384 Y114.498 E24.85452
G1 X109.047 Y114.489 E24.86573
G1 X108.382 Y114.585 E24.88808
G1 X107.755 Y114.83 E24.91047
G1 X107.201 Y115.211 E24.93283
G1 X106.748 Y115.708 E24.9552
G1 X106.417 Y116.293 E24.97755
G1 X106.23 Y116.94 E24.99995
G1 X106.191 Y117.612 E25.02234
G1 X106.307 Y118.273 E25.04466
G1 X106.57 Y118.893 E25.06706
G1 X106.965 Y119.435 E25.08937
G1 X107.475 Y119.876 E25.11179
G1 X108.071 Y120.188 E25.13417
G1 X108.722 Y120.358 E25.15655
G0 F3600 X108.922 Y120.363
G0 X108.906 Y120.863
G0 X107.912 Y120.601
G0 X106.64 Y119.735
G0 X105.883 Y118.398
G0 X105.785 Y117.014
G0 X108.079 Y108.046
G0 X108.182 Y107.558
G1 F1800 X108.807 Y107.69 E25.17779
G1 X109.445 Y107.671 E25.19902
G1 X110.062 Y107.503 E25.22029
G1 X110.621 Y107.194 E25.24153
G1 X111.104 Y106.747 E25.26342
G1 X111.449 Y106.233 E25.28401
G1 X111.671 Y105.634 E25.30526
G1 X111.746 Y105 E25.32649
G1 X111.671 Y104.366 E25.34773
G1 X111.449 Y103.767 E25.36897
G1 X111.078 Y103.223 E25.39087
G1 X110.621 Y102.806 E25.41145
G1 X110.062 Y102.497 E25.43269
G1 X109.444 Y102.329 E25.454
G1 X109.106 Y102.301 E25.46528
G1 X108.49 Y102.358 E25.48585
G1 X107.885 Y102.562 E25.50709
G1 X107.345 Y102.904 E25.52835
G1 X106.9 Y103.361 E25.54956
G1 X106.576 Y103.911 E25.57079
G1 X106.389 Y104.523 E25.59208
G1 X106.351 Y105.16 E25.6133
G1 X106.463 Y105.789 E25.63455
G1 X106.721 Y106.373 E25.65579
G1 X107.109 Y106.881 E25.67705
G1 X107.605 Y107.283 E25.69828
G1 X108.182 Y107.558 E25.71954
G0 F3600 X108.377 Y107.599
G0 X108.274 Y108.087
G0 X107.369 Y107.657
G0 X106.34 Y106.598
G0 X105.91 Y105.185
G0 X108.708 Y95.94
G0 X108.722 Y95.44
G1 F1800 X109.394 Y95.459 E25.7419
G1 X110.052 Y95.323 E25.76425
G1 X110.664 Y95.043 E25.78663
G1 X111.196 Y94.632 E25.80899
G1 X111.621 Y94.11 E25.83138
G1 X111.916 Y93.507 E25.85371
G1 X112.067 Y92.85 E25.87613
G1 X112.066 Y92.178 E25.89848
G1 X111.913 Y91.523 E25.92085
G1 X111.615 Y90.92 E25.94322
G1 X111.189 Y90.4 E25.96558
G1 X110.655 Y89.991 E25.98795
G1 X110.043 Y89.712 E26.01033
G1 X109.384 Y89.58 E26.03268
G1 X109.047 Y89.571 E26.04389
G1 X108.382 Y89.667 E26.06624
G1 X107.755 Y89.912 E26.08863
G1 X107.201 Y90.293 E26.11099
G1 X106.748 Y90.79 E26.13336
G1 X106.417 Y91.375 E26.15571
G1 X106.23 Y92.022 E26.17811
G1 X106.191 Y92.694 E26.2005
G1 X106.307 Y93.355 E26.22282
G1 X106.57 Y93.975 E26.24522
G1 X106.965 Y94.517 E26.26753
G1 X107.475 Y94.958 E26.28995
G1 X108.071 Y95.27 E26.31233
G1 X108.722 Y95.44 E26.33471
G0 F3600 X108.922 Y95.445
G0 X108.61 Y96.227
;TYPE:SKIN
G1 F1800 X109.464 Y96.252 E26.36312
G1 X110.3 Y96.079 E26.39152
G1 X111.075 Y95.724 E26.41987
G1 X111.751 Y95.201 E26.4483
G1 X112.291 Y94.539 E26.47671
G1 X112.666 Y93.772 E26.50511
G1 X112.857 Y92.938 E26.53357
G1 X112.856 Y92.087 E26.56187
G1 X112.662 Y91.254 E26.59032
G1 X112.283 Y90.489 E26.61871
G1 X111.742 Y89.829 E26.6471
G1 X111.064 Y89.309 E26.67552
G1 X110.288 Y88.955 E26.70388
G1 X109.473 Y88.793 E26.73152
G1 X109.001 Y88.78 E26.74723
G1 X108.179 Y88.898 E26.77485
G1 X107.382 Y89.209 E26.8033
G1 X106.678 Y89.694 E26.83174
G1 X106.104 Y90.324 E26.86008
G1 X105.684 Y91.067 E26.88847
G1 X105.447 Y91.888 E26.91689
G1 X105.397 Y92.74 E26.94528
G1 X105.545 Y93.58 E26.97365
G1 X105.879 Y94.366 E27.00205
G1 X106.38 Y95.055 E27.03039
G1 X107.027 Y95.615 E27.05885
G1 X107.784 Y96.012 E27.08728
G1 X108.61 Y96.227 E27.11566
G0 F3600 X109.102 Y101.507
G1 F1800 X108.325 Y101.58 E27.14162
G1 X107.543 Y101.843 E27.16906
G1 X106.843 Y102.286 E27.19662
G1 X106.268 Y102.878 E27.22406
G1 X105.848 Y103.591 E27.25159
G1 X105.607 Y104.382 E27.27909
G1 X105.557 Y105.206 E27.30655
G1 X105.702 Y106.022 E27.33411
G1 X106.036 Y106.777 E27.36157
G1 X106.539 Y107.435 E27.38912
G1 X107.181 Y107.956 E27.41662
G1 X107.927 Y108.312 E27.44411
G1 X108.736 Y108.483 E27.47161
G1 X109.562 Y108.457 E27.4991
G1 X110.361 Y108.24 E27.52664
G1 X111.087 Y107.839 E27.55422
G1 X111.708 Y107.264 E27.58237
G1 X112.157 Y106.596 E27.60914
G1 X112.445 Y105.82 E27.63667
G1 X112.541 Y105 E27.66413
G1 X112.445 Y104.18 E27.69159
G1 X112.156 Y103.401 E27.71923
G1 X111.678 Y102.702 E27.74739
G1 X111.085 Y102.16 E27.77411
G1 X110.361 Y101.76 E27.80162
G1 X109.582 Y101.547 E27.82848
G1 X109.102 Y101.507 E27.8445
G0 F3600 X110.879 Y102.447
G0 X111.842 Y103.564
G0 X112.189 Y105
G0 X109.001 Y113.698
G1 F1800 X108.179 Y113.816 E27.87212
G1 X107.382 Y114.127 E27.90058
G1 X106.678 Y114.612 E27.92901
G1 X106.104 Y115.242 E27.95736
G1 X105.684 Y115.985 E27.98575
G1 X105.447 Y116.806 E28.01417
G1 X105.397 Y117.658 E28.04255
G1 X105.545 Y118.498 E28.07092
G1 X105.879 Y119.284 E28.09933
G1 X106.38 Y119.973 E28.12766
G1 X107.027 Y120.533 E28.15612
G1 X107.785 Y120.93 E28.18458
G1 X108.609 Y121.144 E28.2129
G1 X109.465 Y121.171 E28.24138
G1 X110.3 Y120.996 E28.26976
G1 X111.075 Y120.643 E28.29808
G1 X111.752 Y120.119 E28.32656
G1 X112.291 Y119.457 E28.35495
G1 X112.666 Y118.69 E28.38335
G1 X112.857 Y117.856 E28.4118
G1 X112.856 Y117.005 E28.44011
G1 X112.662 Y116.173 E28.46852
G1 X112.283 Y115.407 E28.49695
G1 X111.742 Y114.748 E28.52531
G1 X111.065 Y114.227 E28.55372
G1 X110.288 Y113.873 E28.58212
G1 X109.473 Y113.711 E28.60975
G1 X109.001 Y113.698 E28.62546
G0 F3600 X106.04 Y105.918
G0 X100.036 Y85.99
G1 F1800 X118.056 Y85.99 E29.22481
G1 X118.056 Y124.01 E30.48936
G1 X100.036 Y124.01 E31.08871
G1 X100.036 Y85.99 E32.35326
G0 F3600 X117.875 Y86.762
G1 F1800 X117.282 Y86.17 E32.38112
G0 F3600 X116.717 Y86.17
G1 F1800 X117.875 Y87.328 E32.43559
G0 F3600 X117.875 Y87.894
G1 F1800 X116.151 Y86.17 E32.51669
G0 F3600 X115.585 Y86.17
G1 F1800 X117.875 Y88.459 E32.62438
G0 F3600 X117.875 Y89.025
G1 F1800 X115.02 Y86.17 E32.75867
G0 F3600 X114.454 Y86.17
G1 F1800 X117.875 Y89.591 E32.91958
G0 F3600 X117.875 Y90.156
G1 F1800 X113.888 Y86.17 E33.10709
G0 F3600 X113.323 Y86.17
G1 F1800 X117.875 Y90.722 E33.32121
G0 F3600 X117.875 Y91.288
G1 F1800 X112.757 Y86.17 E33.56194
G0 F3600 X112.191 Y86.17
G1 F1800 X117.875 Y91.853 E33.82927
G0 F3600 X117.875 Y92.419
G1 F1800 X111.625 Y86.17 E34.12323
G0 F3600 X111.06 Y86.17
G1 F1800 X117.875 Y92.985 E34.44379
G0 F3600 X117.875 Y93.55
G1 F1800 X110.494 Y86.17 E34.79094
G0 F3600 X109.928 Y86.17
G1 F1800 X117.875 Y94.116 E35.16472
G0 F3600 X117.875 Y94.682
G1 F1800 X109.363 Y86.17 E35.5651
G0 F3600 X108.797 Y86.17
G1 F1800 X117.875 Y95.247 E35.99208
G0 F3600 X117.875 Y95.813
G1 F1800 X112.356 Y90.294 E36.25168
G1 X112.286 Y90.224
G0 F3600 X112.876 Y91.38
G1 F1800 X117.875 Y96.379 E36.48681
G0 F3600 X117.875 Y96.945
G1 F1800 X113.035 Y92.104 E36.7145
G0 F3600 X113.035 Y92.67
G1 F1800 X117.875 Y97.51 E36.94216
G0 F3600 X117.875 Y98.076
G1 F1800 X112.984 Y93.185 E37.17221
G0 F3600 X112.878 Y93.645
G1 F1800 X117.875 Y98.642 E37.40726
G0 F3600 X117.875 Y99.207
G1 F1800 X112.725 Y94.057 E37.6495
G0 F3600 X112.539 Y94.437
G1 F1800 X117.875 Y99.773 E37.90049
G0 F3600 X117.875 Y100.339
G1 F1800 X112.321 Y94.785 E38.16173
G0 F3600 X112.067 Y95.096
